icons/svg/24x24/__library/outline.svg

<svg width="24" height="24" fill="none" xmlns="http://www.w3.org/2000/svg">
  <path fill-rule="evenodd" clip-rule="evenodd" d="M21 19.5v1a.5.5 0 01-.5.5h-17a.5.5 0 01-.5-.5v-1a.5.5 0 01.5-.5h17a.5.5 0 01.5.5zM7 16h2V9H7v7zm5-10.848L15.234 7H8.766L12 5.152zM15 16h2V9h-2v7zm-4 0h2V9h-2v7zm-7.518 2h17.036a.2.2 0 00.14-.341L19 16V9a1 1 0 00.496-1.868l-7-4a.998.998 0 00-.992 0l-7 4A1 1 0 005 9v7l-1.658 1.659a.2.2 0 00.14.341z" fill="#000"/>
</svg>

<svg xmlns="http://www.w3.org/2000/svg" width="24" height="24" viewBox="0 0 24 24">
  <path fill-rule="evenodd" d="M21,19.5 L21,20.5 C21,20.776 20.776,21 20.5,21 L3.5,21 C3.224,21 3,20.776 3,20.5 L3,19.5 C3,19.224 3.224,19 3.5,19 L20.5,19 C20.776,19 21,19.224 21,19.5 L21,19.5 Z M7,16 L9,16 L9,9 L7,9 L7,16 Z M12,5.152 L15.234,7 L8.766,7 L12,5.152 Z M15,16 L17,16 L17,9 L15,9 L15,16 Z M11,16 L13,16 L13,9 L11,9 L11,16 Z M3.482,18 L20.518,18 C20.695,18 20.784,17.785 20.658,17.659 L19,16 L19,9 C19.453,9 19.851,8.695 19.967,8.257 C20.083,7.818 19.89,7.357 19.496,7.132 L12.496,3.132 C12.189,2.956 11.811,2.956 11.504,3.132 L4.504,7.132 C4.11,7.357 3.917,7.818 4.033,8.257 C4.149,8.695 4.547,9 5,9 L5,16 L3.342,17.659 C3.216,17.785 3.305,18 3.482,18 L3.482,18 Z"/>
</svg>
